X:1
T:Title
%%score { ( 1 4 ) | ( 2 3 ) }
L:1/8
M:3/4
K:G
V:1 treble nm="Grand Piano"
V:4 treble 
V:2 bass 
V:3 bass 
V:1
 z2 z2[Q:1/4=100] D2 | DD D2 D2 | EE E2 E2 | DD G2 B2 | AG A2 D2 | BB B2 [=Fd]2 | %6
 [Ed][Ec] [Ec]2 [EA]2 | GF B2 A2 |[M:2/4] [B,G]4 |[M:1/4] d2 |[M:3/4] dB B2 B2 | c4 z2 | %12
 F-[F-A] [FA]2 [DFA]2 | .G2 z2 z2 | GB d2 B2 | [EA]E [Ec]2 [EA]2 | GF B2 A2 |[M:2/4] [B,G]4 |] %18
V:2
 z2 z2 [G,B,]2 | [G,B,][G,B,] [G,B,]2 [G,B,]2 | [C,G,C][C,G,C] [C,G,C]2 [C,G,C]2 | %3
 [G,B,][G,B,] [G,B,D]2 [G,D]2 | [F,A,D][E,A,^C] [D,F,D]2 [G,B,]2 | [G,D][G,D] [G,D]2 [B,,G,]2 | %6
 [C,G,][C,G,] [C,G,]2 [C,C]2 | [D,B,D][D,A,D] [D,G,D]2 [D,F,C]2 |[M:2/4] [G,,G,]4 | %9
[M:1/4][K:treble] [G,B,G]2 |[M:3/4] [G,G]-[G,-DG-] [G,DG]2 [G,DG]2 | .[A,F]2 z2[K:bass] z2 | %12
 z D D2 D,2 | G,G, G,2 [G,B,]2 | [G,B,D][G,DG] [G,B,G]2 [G,DG]2 | [C,C][C,G,] [C,G,]2 [C,C]2 | %16
 [D,B,D][D,A,D] [D,G,D]2 [D,F,C]2 |[M:2/4] [G,,G,]4 |] %18
V:3
 x6 | x6 | x6 | x6 | x6 | x6 | x6 | x6 |[M:2/4] x4 |[M:1/4][K:treble] x2 |[M:3/4] .B,2 z2 z2 | %11
 D2- [A,D-][A,D][K:bass] F,2 | D,4 z2 | x6 | x6 | x6 | x6 |[M:2/4] x4 |] %18
V:4
 x6 | x6 | x6 | x6 | x6 | x6 | x6 | x6 |[M:2/4] x4 |[M:1/4] x2 |[M:3/4] x6 | z F F2 [DAc]2 | %12
 .[Dc]2 z2 z2 | [DB]-[D-GB-] [DGB]2 D2 | x6 | x6 | x6 |[M:2/4] x4 |] %18

